svg/filled/MoonFilledIcon.svg

<svg width="24" height="24" viewBox="0 0 24 24" xmlns="http://www.w3.org/2000/svg" fill="#cacaca"><path d="M13.1805 3.51259V3.55048C13.4078 3.55048 13.6731 3.55048 13.9004 3.55048C14.1656 3.58837 14.393 3.77782 14.4309 4.04305C14.5066 4.30828 14.393 4.57351 14.1656 4.68719C12.1196 5.82389 10.7555 8.02153 10.7555 10.4844C10.7555 14.1976 13.7488 17.1531 17.4242 17.1531C17.8031 17.1531 18.182 17.1531 18.5609 17.0773C18.8261 17.0394 19.0914 17.1531 19.205 17.3804C19.3187 17.6456 19.2808 17.9109 19.0914 18.1003C17.5757 19.578 15.4918 20.4874 13.1805 20.4874C8.51998 20.4874 4.73096 16.6984 4.73096 12C4.73096 7.3395 8.51998 3.51259 13.1805 3.51259Z"/></svg>

<svg width="24" height="24" fill="#cacaca" xmlns="http://www.w3.org/2000/svg"><path d="M13.18 3.513v.037h.72c.266.038.493.228.53.493a.542.542 0 01-.264.644 6.646 6.646 0 00-3.41 5.797 6.654 6.654 0 006.668 6.67c.38 0 .758 0 1.137-.077.265-.038.53.076.644.303.114.266.076.53-.114.72a8.43 8.43 0 01-5.91 2.387c-4.661 0-8.45-3.789-8.45-8.487 0-4.66 3.789-8.487 8.45-8.487z"/></svg>
